X: 209
T: Lord Mayo
B: O'Neill's 209
N: "Slow"
N: "Collected by F.O'Neill"
Z: 1997 by John Chambers <jc@trillian.mit.edu>
M: C
L: 1/8
K:GDor
GF \
| (D>G) (G/A/c) d2 (cA) | d2 (G>A) (GF) D2 | D>G (G/A/c) d2 (fd) | (d>c) (A>G) G2 ||
|| d2 \
| (fd)(fg) a2 (gf) | (d>c) (d/=e/f) (F>G) (FD) | (fd)(fg) a2 (gf) | d2 (ga) g2 (ag) |
| (fd)(fg) a2 (gf) | d>c (d/=e/f) F>G FD | (D>G) (cA) (GF) (fd) | d>c A>G G2 ||


